Simply-Black-Circles/scalable/mimes/x-package-repository.svg

<svg xmlns="http://www.w3.org/2000/svg" width="48" height="48" viewBox="0 0 12.7 12.7"><path d="M1.21.86L.14 3.66h6.04V.86H1.21zm5.18 0v2.8h6.11L11.4.86H6.4zM.19 3.89v6.31c0 .64.25 1.18.74 1.64.5.45 1.08.67 1.78.67h7.25c.7 0 1.28-.22 1.78-.67.49-.46.73-1 .73-1.64V3.9h-1.12v6.3c0 .36-.13.66-.4.91a1.4 1.4 0 0 1-.99.38H2.71a1.4 1.4 0 0 1-.99-.38 1.19 1.19 0 0 1-.41-.9V3.88H.19zm3.21.32l-.61 1.6h3.45v-1.6H3.4zm2.96 0v1.6h3.5l-.63-1.6H6.36zM2.82 5.95v3.61c0 .36.14.68.42.93.28.26.62.4 1.01.4H8.4c.4 0 .74-.14 1.02-.4.28-.25.42-.57.42-.93v-3.6H9.2v3.6c0 .2-.08.37-.23.52a.8.8 0 0 1-.57.21H4.25a.8.8 0 0 1-.56-.21.68.68 0 0 1-.23-.52v-3.6h-.64z" fill="#1a1a1a"/></svg>

<?xml version="1.0" encoding="UTF-8" standalone="no"?>
<svg
   xmlns:dc="http://purl.org/dc/elements/1.1/"
   xmlns:cc="http://creativecommons.org/ns#"
   xmlns:rdf="http://www.w3.org/1999/02/22-rdf-syntax-ns#"
   xmlns:svg="http://www.w3.org/2000/svg"
   xmlns="http://www.w3.org/2000/svg"
   xmlns:sodipodi="http://sodipodi.sourceforge.net/DTD/sodipodi-0.dtd"
   xmlns:inkscape="http://www.inkscape.org/namespaces/inkscape"
   width="48"
   height="48"
   viewBox="0 0 12.7 12.7"
   version="1.1"
   id="svg4"
   sodipodi:docname="x-package-repository.svg"
   inkscape:version="0.92.4 (5da689c313, 2019-01-14)">
  <metadata
     id="metadata10">
    <rdf:RDF>
      <cc:Work
         rdf:about="">
        <dc:format>image/svg+xml</dc:format>
        <dc:type
           rdf:resource="http://purl.org/dc/dcmitype/StillImage" />
        <dc:title></dc:title>
      </cc:Work>
    </rdf:RDF>
  </metadata>
  <defs
     id="defs8" />
  <sodipodi:namedview
     pagecolor="#ffffff"
     bordercolor="#666666"
     borderopacity="1"
     objecttolerance="10"
     gridtolerance="10"
     guidetolerance="10"
     inkscape:pageopacity="0"
     inkscape:pageshadow="2"
     inkscape:window-width="1087"
     inkscape:window-height="480"
     id="namedview6"
     showgrid="false"
     inkscape:zoom="4.9166667"
     inkscape:cx="2.1355932"
     inkscape:cy="24"
     inkscape:window-x="0"
     inkscape:window-y="25"
     inkscape:window-maximized="0"
     inkscape:current-layer="svg4" />
  <path
     d="m 1.21,0.86 -1.07,2.8 h 6.04 v -2.8 z m 5.18,0 v 2.8 h 6.11 l -1.1,-2.8 h -5 z m -6.2,3.03 v 6.31 c 0,0.64 0.25,1.18 0.74000003,1.64 C 1.43,12.29 2.01,12.51 2.71,12.51 H 9.9600003 C 10.66,12.51 11.24,12.29 11.74,11.84 c 0.49,-0.46 0.73,-1 0.73,-1.64 V 3.9 h -1.12 v 6.3 c 0,0.36 -0.13,0.66 -0.4,0.91 A 1.4,1.4 0 0 1 9.9600003,11.49 H 2.71 A 1.4,1.4 0 0 1 1.72,11.11 1.19,1.19 0 0 1 1.31,10.21 V 3.88 H 0.19 Z M 3.4,4.21 2.79,5.81 h 3.45 v -1.6 z m 2.96,0 v 1.6 H 9.8600003 L 9.23,4.21 Z M 2.82,5.95 v 3.61 c 0,0.36 0.14,0.68 0.42,0.93 0.28,0.26 0.62,0.4 1.01,0.4 H 8.4 c 0.4,0 0.74,-0.14 1.02,-0.4 C 9.7000003,10.24 9.8400003,9.92 9.8400003,9.56 V 5.96 H 9.2 v 3.6 c 0,0.2 -0.08,0.37 -0.23,0.52 A 0.8,0.8 0 0 1 8.4,10.29 H 4.25 A 0.8,0.8 0 0 1 3.69,10.08 0.68,0.68 0 0 1 3.46,9.56 V 5.96 H 2.82 Z"
     id="path2"
     inkscape:connector-curvature="0"
     style="fill:#1a1a1a" />
</svg>
